src/lib/packages/icons/src/assets/line/bookmarks-settings.svg

<svg width="24" height="24" viewBox="0 0 24 24" fill="none" xmlns="http://www.w3.org/2000/svg">
<path d="M17.4299 1.25H10.571C8.46105 1.25 7.25098 2.45995 7.25098 4.56995V5.25H6.57202C4.43002 5.25 3.25098 6.43005 3.25098 8.57104V22C3.25098 22.268 3.394 22.515 3.625 22.649C3.741 22.716 3.87098 22.75 4.00098 22.75C4.12898 22.75 4.25805 22.717 4.37305 22.651L10.001 19.4351L15.6289 22.651C15.8609 22.784 16.147 22.7829 16.377 22.6479C16.608 22.5139 16.751 22.267 16.751 22V17.004L19.6279 18.651C19.7439 18.717 19.872 18.75 20.001 18.75C20.131 18.75 20.261 18.716 20.377 18.649C20.608 18.515 20.751 18.268 20.751 18V4.56995C20.75 2.45995 19.5399 1.25 17.4299 1.25ZM15.25 20.707L10.3721 17.92C10.1421 17.788 9.85793 17.788 9.62793 17.92L4.75 20.708V8.57202C4.75 7.27902 5.27704 6.75098 6.57104 6.75098H13.428C14.722 6.75098 15.249 7.27902 15.249 8.57202V20.707H15.25ZM19.25 16.707L16.75 15.275V8.57104C16.75 6.42904 15.57 5.25 13.429 5.25H8.75V4.56995C8.75 3.27795 9.27707 2.75 10.5701 2.75H17.429C18.722 2.75 19.249 3.27695 19.249 4.56995V16.707H19.25ZM13.343 9.69299C13.134 9.34299 12.688 9.224 12.332 9.422L12.2161 9.48706C12.0701 9.56906 11.8911 9.56796 11.7451 9.48596C11.6101 9.40996 11.5271 9.274 11.5271 9.13C11.5271 8.644 11.1311 8.24902 10.6421 8.24902H9.30811C8.82011 8.24902 8.4231 8.644 8.4231 9.13C8.4231 9.276 8.34205 9.40896 8.20605 9.48596C8.05905 9.56896 7.87789 9.56806 7.73389 9.48706C7.31989 9.25306 6.78099 9.39498 6.54199 9.80298L5.87012 10.9301C5.76712 11.1041 5.72605 11.4081 5.77905 11.6021C5.84105 11.8291 5.993 12.024 6.198 12.14C6.333 12.216 6.41699 12.352 6.41699 12.498C6.41799 12.643 6.334 12.7801 6.198 12.8571C5.992 12.9731 5.83908 13.169 5.77808 13.397C5.72608 13.592 5.76905 13.897 5.87305 14.071L6.54297 15.196C6.79197 15.608 7.31689 15.745 7.73389 15.51C7.87989 15.429 8.0591 15.428 8.2041 15.51C8.3391 15.586 8.42212 15.721 8.42212 15.866C8.42212 16.352 8.81788 16.7469 9.30688 16.7469H10.6431C11.1301 16.7469 11.5271 16.352 11.5271 15.866C11.5271 15.722 11.6101 15.586 11.7461 15.51C11.8901 15.428 12.0701 15.428 12.2161 15.51C12.6371 15.745 13.1579 15.608 13.4089 15.193L14.0759 14.073C14.1799 13.899 14.2241 13.5939 14.1731 13.3979C14.1121 13.1699 13.96 12.972 13.752 12.856C13.617 12.78 13.533 12.643 13.533 12.499C13.533 12.353 13.617 12.215 13.752 12.139L13.8679 12.074C14.0439 11.975 14.1731 11.809 14.2241 11.614C14.2751 11.419 14.247 11.211 14.144 11.037L13.343 9.69299ZM12.5171 13.762L12.3799 13.9919C11.9179 13.8979 11.428 13.9691 11.009 14.2061C10.593 14.4401 10.2841 14.815 10.1331 15.249H9.81909C9.66809 14.815 9.36009 14.44 8.94409 14.205C8.94309 14.205 8.94312 14.205 8.94312 14.205C8.52512 13.969 8.032 13.8969 7.573 13.9919L7.43604 13.762C7.74404 13.415 7.91997 12.966 7.91797 12.494C7.91697 12.027 7.74006 11.5811 7.43506 11.2371L7.573 11.007C8.038 11.1 8.52609 11.029 8.94409 10.793C9.36009 10.559 9.66809 10.184 9.81909 9.75H10.1331C10.2841 10.184 10.5921 10.559 11.0081 10.793C11.4271 11.03 11.9159 11.102 12.3799 11.007L12.5171 11.2371C12.2101 11.5831 12.0339 12.0311 12.0339 12.5031C12.0339 12.9721 12.2111 13.417 12.5171 13.762ZM11.02 12.5C11.02 13.052 10.573 13.5 10.02 13.5C9.46802 13.5 9.01489 13.052 9.01489 12.5C9.01489 11.948 9.45801 11.5 10.01 11.5H10.02C10.572 11.5 11.02 11.948 11.02 12.5Z" fill="currentColor"/>
</svg>

<svg xmlns="http://www.w3.org/2000/svg" width="24" height="24" fill="none"><path fill="currentColor" d="M17.43 1.25h-6.86c-2.11 0-3.32 1.21-3.32 3.32v.68h-.679c-2.142 0-3.321 1.18-3.321 3.321V22a.75.75 0 0 0 1.122.651L10 19.435l5.628 3.216A.75.75 0 0 0 16.75 22v-4.996l2.877 1.647A.752.752 0 0 0 20.75 18V4.57c-.001-2.11-1.211-3.32-3.321-3.32Zm-2.18 19.457-4.878-2.787a.749.749 0 0 0-.744 0L4.75 20.708V8.572c0-1.293.527-1.821 1.821-1.821h6.857c1.294 0 1.821.528 1.821 1.821v12.135h.001Zm4-4-2.5-1.432V8.571c0-2.142-1.18-3.321-3.321-3.321H8.75v-.68c0-1.292.527-1.82 1.82-1.82h6.859c1.293 0 1.82.527 1.82 1.82v12.137h.001Zm-5.907-7.014a.75.75 0 0 0-1.011-.271l-.116.065a.482.482 0 0 1-.47-.001.414.414 0 0 1-.219-.356.883.883 0 0 0-.885-.881H9.308a.884.884 0 0 0-.885.881.41.41 0 0 1-.217.356.484.484 0 0 1-.472.001.886.886 0 0 0-1.192.316L5.87 10.93a1.004 1.004 0 0 0-.091.672.89.89 0 0 0 .419.538.415.415 0 0 1 .219.358.415.415 0 0 1-.219.36.885.885 0 0 0-.42.539c-.052.195-.009.5.095.674l.67 1.125a.882.882 0 0 0 1.19.314.483.483 0 0 1 .471 0 .412.412 0 0 1 .218.356c0 .486.396.88.885.88h1.336a.884.884 0 0 0 .884-.88c0-.144.083-.28.22-.356a.48.48 0 0 1 .47 0 .882.882 0 0 0 1.192-.317l.667-1.12a1.02 1.02 0 0 0 .097-.675.884.884 0 0 0-.421-.542.416.416 0 0 1-.219-.357c0-.146.084-.284.219-.36l.116-.065a.745.745 0 0 0 .356-.46.757.757 0 0 0-.08-.577l-.801-1.344Zm-.826 4.069-.137.23a1.986 1.986 0 0 0-1.371.214 1.927 1.927 0 0 0-.876 1.043H9.82a1.93 1.93 0 0 0-.875-1.044 1.985 1.985 0 0 0-1.371-.213l-.137-.23c.308-.347.484-.796.482-1.268a1.905 1.905 0 0 0-.483-1.257l.138-.23c.465.093.953.022 1.371-.214.416-.234.724-.609.875-1.043h.314c.151.434.46.809.875 1.043.42.237.908.309 1.372.214l.137.23a1.907 1.907 0 0 0-.483 1.266c0 .47.177.914.483 1.259ZM11.02 12.5a1 1 0 0 1-1 1 1.005 1.005 0 0 1-1.005-1c0-.552.443-1 .995-1h.01a1 1 0 0 1 1 1Z"/></svg>
